X:128
T:Bacon Flitch. JJo8.128, The
B:J.Johnson Choice Collection Vol 8 1758
Z:vmp.Simon Wilson 2013 www.village-music-project.org.uk
T:Trip to Dunmow. JJo8.128
M:2/4
L:1/8
Q:1/4=100
K:D
|:a/g/|fddf|eAAG|FdEc|dD Da/g/|fddf|ea^gb|afed|cAA:|
|:d|dAB=c|BGGe|eBcd|cAAG|Fafd|Egec|dBAG|FDD:|
